packages/kaspersky-hexa-ui-icons/src/iconsSVGs/16/TencentQq.svg

<svg width="16" height="16" viewBox="0 0 16 16" fill="none" xmlns="http://www.w3.org/2000/svg">
<path d="M7.3983 3.90777C7.41803 4.1503 7.28256 4.36575 7.09621 4.38922C6.90947 4.41279 6.74236 4.23533 6.72253 3.9928C6.70299 3.75008 6.83826 3.53463 7.02431 3.51125C7.21135 3.48749 7.37876 3.66524 7.3983 3.90777Z" fill="black"/>
<path d="M8.9867 3.92956C8.85979 3.97264 8.77564 4.05455 8.74143 4.10138C8.70716 4.1483 8.64128 4.15859 8.5943 4.12437C8.54732 4.09014 8.53701 4.02436 8.57129 3.97744C8.62691 3.90128 8.74476 3.78956 8.91891 3.73043C9.09707 3.66995 9.32624 3.66734 9.59349 3.80078C9.6455 3.82675 9.66659 3.88992 9.64058 3.94186C9.61457 3.99381 9.55132 4.01486 9.49931 3.98889C9.28051 3.87965 9.10959 3.88783 8.9867 3.92956Z" fill="black"/>
<path fill-rule="evenodd" clip-rule="evenodd" d="M12.4667 6.88421C12.4672 6.8658 12.4752 6.55592 12.4752 6.39618C12.4752 3.70462 11.1815 1.0001 8.00004 1C4.81854 1.0001 3.52482 3.70472 3.52482 6.39609C3.52482 6.55602 3.53275 6.86575 3.53335 6.88406L2.89121 8.45793C2.71527 8.90831 2.54171 9.37752 2.41447 9.77958C1.80762 11.6974 2.00428 12.491 2.15394 12.5087C2.47516 12.5469 3.40412 11.0652 3.40412 11.0652C3.40412 11.9194 3.84964 13.0332 4.81398 13.8409C4.45261 13.9512 4.01433 14.1191 3.73148 14.3243C3.47363 14.5111 3.50586 14.7016 3.55228 14.7785C3.7474 15.1019 6.77243 15.004 7.86595 14.9028C7.89646 14.9034 7.92714 14.9038 7.95799 14.904H8.04209C8.0737 14.9038 8.10512 14.9034 8.13638 14.9027C9.22954 15.0039 12.2554 15.1019 12.4506 14.7785C12.4971 14.7016 12.5292 14.5111 12.2715 14.3243C11.988 14.1186 11.5484 13.9505 11.1868 13.8402C12.1506 13.0325 12.5959 11.9192 12.5959 11.0652C12.5959 11.0652 13.5249 12.5469 13.8461 12.5088C13.9957 12.491 14.1924 11.6973 13.5856 9.77958C13.4584 9.37742 13.2847 8.90843 13.1088 8.45805L12.4667 6.88421ZM11.3878 8.87503C10.2167 9.10311 9.00542 9.23386 8.00749 9.22204H7.99231C7.72691 9.22519 7.44641 9.21824 7.15559 9.20207V11.0852C6.16822 11.2204 5.18273 11.0252 5.18273 11.0252V8.97794C4.99314 8.94648 4.80352 8.91231 4.61494 8.87561C4.52832 9.42063 4.48014 10.0904 4.52796 10.8779C4.65847 13.0249 5.95676 14.3745 7.96076 14.394H8.04208C10.0462 14.3745 11.3444 13.0249 11.4751 10.8779C11.5229 10.0899 11.4746 9.42019 11.3878 8.87503ZM10.7236 5.84322C10.6084 5.59242 9.44675 5.31288 8.00883 5.31288H7.99335C6.55534 5.31288 5.39381 5.59242 5.27847 5.84332C5.27301 5.85448 5.27014 5.86669 5.27004 5.87907C5.27004 5.89718 5.27629 5.91335 5.28591 5.92738C5.3831 6.06637 6.67286 6.75401 7.99335 6.75401H8.00883C9.32923 6.75401 10.619 6.06656 10.7162 5.92738C10.7264 5.91318 10.7319 5.89625 10.732 5.87887C10.7319 5.86655 10.7291 5.85432 10.7236 5.84322ZM6.86941 4.97627C6.43781 4.99545 6.06908 4.51264 6.04587 3.89872C6.02247 3.28461 6.35311 2.77122 6.78472 2.75203C7.21583 2.73304 7.58446 3.21566 7.60786 3.82977C7.63147 4.44397 7.30072 4.95737 6.86941 4.97627ZM9.95699 3.89872C9.93389 4.51254 9.56516 4.99545 9.13355 4.97627C8.70215 4.95727 8.3715 4.44397 8.3951 3.82986C8.41851 3.21575 8.78704 2.73313 9.21825 2.75203C9.64985 2.77122 9.9805 3.28461 9.95699 3.89872Z" fill="black"/>
</svg>

<svg xmlns="http://www.w3.org/2000/svg" width="16" height="16" fill="none" viewBox="0 0 16 16"><path fill="#000" d="M7.398 3.908c.02.243-.116.458-.302.481-.187.024-.354-.154-.374-.396-.019-.243.116-.458.302-.481.187-.024.355.154.374.397m1.589.021c-.127.043-.211.125-.245.172a.105.105 0 0 1-.147.023.105.105 0 0 1-.023-.147c.056-.076.174-.188.348-.247.178-.06.407-.063.675.07a.105.105 0 1 1-.094.188c-.219-.109-.39-.101-.513-.059"/><path fill="#000" fill-rule="evenodd" d="M12.4667 6.8842a26 26 0 0 0 .0085-.488C12.4752 3.7046 11.1815 1 8 1c-3.1815.0001-4.4752 2.7047-4.4752 5.396 0 .16.008.4698.0086.488l-.6422 1.574c-.176.4503-.3495.9195-.4767 1.3216-.6069 1.9178-.4102 2.7114-.2606 2.7291.3213.0382 1.2502-1.4435 1.2502-1.4435 0 .8542.4455 1.968 1.4099 2.7757-.3614.1103-.7997.2782-1.0825.4834-.2579.1868-.2256.3773-.1792.4542.1951.3234 3.2201.2255 4.3137.1243q.0457.0009.092.0012h.084a6 6 0 0 0 .0944-.0013c1.0931.1012 4.119.1992 4.3142-.1242.0465-.0769.0786-.2674-.1791-.4542-.2835-.2057-.7231-.3738-1.0847-.4841.9638-.8077 1.4091-1.921 1.4091-2.775 0 0 .929 1.4817 1.2502 1.4436.1496-.0178.3463-.8115-.2605-2.7292-.1272-.4022-.3009-.8712-.4768-1.3216zM11.3878 8.875c-1.1711.2281-2.3824.3589-3.3803.347h-.0152a12.5 12.5 0 0 1-.8367-.02v1.8832c-.9874.1352-1.9729-.06-1.9729-.06V8.9779a21 21 0 0 1-.5678-.1023c-.0866.545-.1348 1.2148-.087 2.0023.1306 2.147 1.4289 3.4966 3.4329 3.5161h.0813c2.0041-.0195 3.3023-1.3691 3.433-3.5161.0478-.788-.0005-1.4577-.0873-2.0029m-.6642-3.0318c-.1152-.2508-1.2768-.5303-2.7148-.5303h-.0155c-1.438 0-2.5995.2795-2.7148.5304a.08.08 0 0 0-.0085.0358c0 .018.0063.0343.016.0483.0971.139 1.3869.8266 2.7074.8266h.0154c1.3204 0 2.6102-.6874 2.7074-.8266a.082.082 0 0 0 .0074-.0842m-3.8542-.867c-.4316.0192-.8003-.4636-.8235-1.0775-.0234-.614.3072-1.1275.7388-1.1467.4311-.019.7998.4637.8232 1.0778.0236.6142-.3072 1.1276-.7385 1.1465M9.957 3.8988c-.0231.6138-.3918 1.0968-.8235 1.0776-.4314-.019-.762-.5323-.7384-1.1464.0234-.6141.392-1.0968.8232-1.0779.4316.0192.7622.5326.7387 1.1467" clip-rule="evenodd"/></svg>
